img/cross.svg

<svg xmlns="http://www.w3.org/2000/svg" width="24" height="24" viewBox="0 0 128 128">
  <path d="M20 11l31 31c2.39 2.39 9.9 10.96 13 10.96 3 0 9.73-7.69 12-9.96l31-31c2.98-2.98 10.51-12.41 15-10.83 2.86 1 5.92 4.7 4.83 7.83-.92 2.66-9.39 10.56-11.83 13L88 49c-2.6 2.6-12.96 11.82-12.96 15 0 3 7.69 9.73 9.96 12l31 31c2.98 2.98 12.41 10.51 10.83 15-1 2.86-4.7 5.92-7.83 4.83-2.66-.92-10.56-9.39-13-11.83L79 88c-2.6-2.6-11.82-12.96-15-12.96-3 0-9.73 7.69-12 9.96l-31 31c-2.98 2.98-10.51 12.41-15 10.83-2.86-1-5.92-4.7-4.83-7.83.92-2.66 9.39-10.56 11.83-13l27-27c2.6-2.6 12.96-11.82 12.96-15 0-3-7.69-9.73-9.96-12L12 21C5.93 14.93-5.24 8.23 6 1.17 11.86.67 16.16 7.16 20 11z"/>
</svg>

<?xml version="1.0" encoding="UTF-8" standalone="no"?>
<svg
   xmlns:dc="http://purl.org/dc/elements/1.1/"
   xmlns:cc="http://creativecommons.org/ns#"
   xmlns:rdf="http://www.w3.org/1999/02/22-rdf-syntax-ns#"
   xmlns:svg="http://www.w3.org/2000/svg"
   xmlns="http://www.w3.org/2000/svg"
   xmlns:sodipodi="http://sodipodi.sourceforge.net/DTD/sodipodi-0.dtd"
   xmlns:inkscape="http://www.inkscape.org/namespaces/inkscape"
   width="24px"
   height="24px"
   viewBox="0 0 128 128"
   id="svg2"
   version="1.1"
   inkscape:version="0.91 r13725"
   sodipodi:docname="cross.svg">
  <metadata
     id="metadata9">
    <rdf:RDF>
      <cc:Work
         rdf:about="">
        <dc:format>image/svg+xml</dc:format>
        <dc:type
           rdf:resource="http://purl.org/dc/dcmitype/StillImage" />
      </cc:Work>
    </rdf:RDF>
  </metadata>
  <defs
     id="defs7" />
  <sodipodi:namedview
     pagecolor="#ffffff"
     bordercolor="#666666"
     borderopacity="1"
     objecttolerance="10"
     gridtolerance="10"
     guidetolerance="10"
     inkscape:pageopacity="0"
     inkscape:pageshadow="2"
     inkscape:window-width="640"
     inkscape:window-height="480"
     id="namedview5"
     showgrid="false"
     inkscape:zoom="9.8333333"
     inkscape:cx="12"
     inkscape:cy="12"
     inkscape:window-x="0"
     inkscape:window-y="24"
     inkscape:window-maximized="0"
     inkscape:current-layer="svg2" />
  <path
     id="Sélection"
     fill="black"
     stroke="none"
     stroke-width="1"
     d="M 20.00,11.00            C 20.00,11.00 51.00,42.00 51.00,42.00              53.39,44.39 60.90,52.96 64.00,52.96              67.00,52.96 73.73,45.27 76.00,43.00              76.00,43.00 107.00,12.00 107.00,12.00              109.98,9.02 117.51,-0.41 122.00,1.17              124.86,2.17 127.92,5.87 126.83,9.00              125.91,11.66 117.44,19.56 115.00,22.00              115.00,22.00 88.00,49.00 88.00,49.00              85.40,51.60 75.04,60.82 75.04,64.00              75.04,67.00 82.73,73.73 85.00,76.00              85.00,76.00 116.00,107.00 116.00,107.00              118.98,109.98 128.41,117.51 126.83,122.00              125.83,124.86 122.13,127.92 119.00,126.83              116.34,125.91 108.44,117.44 106.00,115.00              106.00,115.00 79.00,88.00 79.00,88.00              76.40,85.40 67.18,75.04 64.00,75.04              61.00,75.04 54.27,82.73 52.00,85.00              52.00,85.00 21.00,116.00 21.00,116.00              18.02,118.98 10.49,128.41 6.00,126.83              3.14,125.83 0.08,122.13 1.17,119.00              2.09,116.34 10.56,108.44 13.00,106.00              13.00,106.00 40.00,79.00 40.00,79.00              42.60,76.40 52.96,67.18 52.96,64.00              52.96,61.00 45.27,54.27 43.00,52.00              43.00,52.00 12.00,21.00 12.00,21.00              5.93,14.93 -5.24,8.23 6.00,1.17              11.86,0.67 16.16,7.16 20.00,11.00 Z" />
</svg>
